img/email.svg

<svg width="24" height="24" fill="none" xmlns="http://www.w3.org/2000/svg"><path fill-rule="evenodd" clip-rule="evenodd" d="M20 4H4c-1.1 0-2 .9-2 2v12c0 1.1.9 2 2 2h16c1.1 0 2-.9 2-2V6c0-1.1-.9-2-2-2zm0 14h-2V9.2L12 13 6 9.2V18H4V6h1.2l6.8 4.2L18.8 6H20v12z" fill="#fff"/></svg>

<svg width="24" height="24" viewBox="0 0 24 24" fill="none" xmlns="http://www.w3.org/2000/svg">
<path fill-rule="evenodd" clip-rule="evenodd" d="M20 4H4C2.9 4 2 4.9 2 6V18C2 19.1 2.9 20 4 20H20C21.1 20 22 19.1 22 18V6C22 4.9 21.1 4 20 4ZM20 18H18V9.2L12 13L6 9.2V18H4V6H5.2L12 10.2L18.8 6H20V18Z" fill="white"/>
</svg>
